X:1
T:Oliva, 76.76 D
T:Oliva, 76.76 D
T:Alexander B. Morton, 1897
T:Public Domain Courtesy of the Cyber Hymnal™
C:Alexander B. Morton, 1897
Z:Public Domain
Z:Courtesy of the Cyber Hymnal™
%%score ( 1 2 ) ( 3 4 )
L:1/8
Q:1/4=95
M:3/4
K:F
V:1 treble 
V:2 treble 
V:3 bass 
V:4 bass 
V:1
 C2 | C>[CF] [FB]3 [FA] | (A>G) [DF]2 [^CE]2 | D3 [DF] [DB][B,D] | [A,C]4 C2 | C>[CF] [FB]3 [FA] | %6
 ([Ac]>[GB]) [FA]2 F2 | [EG]3 [CE] [DF][=B,D] | C4 [Ec]2 | [Ec]3 [CE] [CF][EG] | %10
 (A>B) [Fc]2 [FA]2 | [FA]3 E [DF][DG] | [EA]4 [Ec]2 | [Ff]3 [Fc] [FB][FA] | G>B [Fd]2 [Fd]2 | %15
 [Fc]3 [CF] [CG][EA] | F4 |] %17
V:2
 C2 | C3/2 x9/2 | E2 x4 | D3 x3 | x4 C2 | C3/2 x9/2 | x4 F2 | x6 | C4 x2 | x6 | F2 x4 | x3 E x2 | %12
 x6 | x6 | F2 x4 | x6 | F4 |] %17
V:3
 [F,A,]2 | [F,A,]>[F,A,] [F,D]3 [F,C] | (C>B,) [D,A,]2 [A,,G,]2 | [B,,F,]3 [B,,B,] [B,,F,][B,,F,] | %4
 F,4 [F,A,]2 | [F,A,]>[F,A,] [F,D]3 [F,C] | [C,C]2 [F,C]2 [F,A,]2 | [C,C]3 [C,G,] [G,,G,][G,,F,] | %8
 [C,E,]4 [C,G,]2 | [C,G,]3 [C,B,] [C,A,][C,G,] | (F,>G,) [F,A,]2 F,2 | %11
 [D,F,]3 [^C,A,] [D,D][B,,D] | [A,,^C]4 [G,B,]2 | [F,A,]3 [_E,A,] [D,B,][C,C] | %14
 [B,,D]2 [B,,B,]2 [=B,,^G,]2 | [C,A,]3 [C,A,] [C,B,][C,C] | [F,,F,A,]4 |] %17
V:4
 x2 | x6 | C,2 x4 | x6 | F,4 x2 | x6 | x6 | x6 | x6 | x6 | F,2 x/ F,2 x3/2 | x6 | x6 | x6 | x6 | %15
 x6 | x4 |] %17

